Sources/FrostedUI/Resources/Icons.xcassets/timeSkipRight16.imageset/time-skip-right-16.svg

<svg width="16" height="16" viewBox="0 0 16 16" fill="none" xmlns="http://www.w3.org/2000/svg" data-fui-icon="true">
  <path
    d="M7.94727 1.75C4.13664 1.75018 1.75 4.67003 1.75 8C1.75 11.33 4.13664 14.2498 7.94727 14.25C10.4185 14.25 12.4503 12.8961 13.4512 11.1182C13.6544 10.7572 13.526 10.2999 13.165 10.0967C12.8041 9.89356 12.3468 10.021 12.1436 10.3818C11.3994 11.7038 9.8586 12.75 7.94727 12.75C5.05355 12.7498 3.25 10.5929 3.25 8C3.25 5.40711 5.05355 3.25018 7.94727 3.25C10.3464 3.25 11.6078 4.75033 12.0811 6.08691H11C10.5858 6.08691 10.25 6.4227 10.25 6.83691C10.2502 7.25096 10.5859 7.58691 11 7.58691H12.8711C13.6391 7.58691 14.2499 6.95997 14.25 6.20215V3C14.25 2.58579 13.9142 2.25 13.5 2.25C13.0858 2.25 12.75 2.58579 12.75 3V4.14941C11.841 2.85175 10.2976 1.75 7.94727 1.75ZM8 4.75C7.58579 4.75 7.25 5.08579 7.25 5.5V8.5C7.25 8.71939 7.34604 8.92595 7.50977 9.06738L7.58398 9.12402L9.08398 10.124C9.42863 10.3538 9.89426 10.2607 10.124 9.91602C10.3538 9.57137 10.2607 9.10574 9.91602 8.87598L8.75 8.09863V5.5C8.75 5.08579 8.41421 4.75 8 4.75Z"
    fill="currentColor"
  />
</svg>

<svg xmlns="http://www.w3.org/2000/svg" width="16" height="16" fill="none" data-fui-icon="true" viewBox="0 0 16 16"><path fill="currentColor" d="M7.947 1.75C4.137 1.75 1.75 4.67 1.75 8s2.387 6.25 6.197 6.25c2.472 0 4.503-1.354 5.504-3.132a.75.75 0 0 0-1.307-.736c-.745 1.322-2.285 2.368-4.197 2.368-2.893 0-4.697-2.157-4.697-4.75s1.804-4.75 4.697-4.75c2.4 0 3.66 1.5 4.134 2.837H11a.75.75 0 0 0 0 1.5h1.871c.768 0 1.379-.627 1.379-1.385V3a.75.75 0 0 0-1.5 0v1.15c-.909-1.298-2.452-2.4-4.803-2.4m.053 3a.75.75 0 0 0-.75.75v3c0 .22.096.426.26.567l.074.057 1.5 1a.75.75 0 1 0 .832-1.248L8.75 8.099V5.5A.75.75 0 0 0 8 4.75"/></svg>
